assets/icons/like_filled.svg

<svg width="33" height="33" viewBox="0 0 33 33" fill="none" xmlns="http://www.w3.org/2000/svg">
  <path
    d="M26.3919 21.3801C28.7532 18.6652 30.8334 15.3705 30.8334 12.0923C30.8332 7.7692 27.6312 4.1665 23.1667 4.1665C21.0443 4.1665 18.9883 4.85008 16.5 7.11962C14.0118 4.85008 11.9558 4.1665 9.83335 4.1665C5.36877 4.1665 2.16675 7.7692 2.16669 12.0923C2.16669 15.3705 4.24682 18.6652 6.60809 21.3801C9.00607 24.137 11.8722 26.4957 13.7826 27.9244L14.0924 28.1378C15.675 29.132 17.698 29.0604 19.2175 27.9244L19.9766 27.3462C21.8376 25.8998 24.2938 23.7924 26.3919 21.3801Z"
    fill="url(#paint0_linear_19081_791)" />
  <defs>
    <linearGradient id="paint0_linear_19081_791" x1="12.4585" y1="28.8335" x2="28.1731" y2="10.8266"
      gradientUnits="userSpaceOnUse">
      <stop stop-color="#FF97CD" />
      <stop offset="1" stop-color="#FF349D" />
    </linearGradient>
  </defs>
</svg>

<svg xmlns="http://www.w3.org/2000/svg" width="33" height="33" fill="none" viewBox="0 0 33 33"><path fill="url(#a)" d="M26.392 21.38c2.361-2.715 4.441-6.01 4.441-9.288 0-4.323-3.202-7.925-7.666-7.925-2.123 0-4.179.683-6.667 2.953-2.488-2.27-4.544-2.953-6.667-2.953-4.464 0-7.666 3.602-7.666 7.925 0 3.278 2.08 6.573 4.441 9.288 2.398 2.757 5.264 5.116 7.175 6.544l.31.214a4.515 4.515 0 0 0 5.125-.214l.759-.578c1.86-1.446 4.317-3.554 6.415-5.966"/><defs><linearGradient id="a" x1="12.459" x2="28.173" y1="28.834" y2="10.827" gradientUnits="userSpaceOnUse"><stop stop-color="#ff97cd"/><stop offset="1" stop-color="#ff349d"/></linearGradient></defs></svg>
